web/packages/design/src/ResourceIcon/assets/linkedin-dark.svg

<svg width="72" height="72" viewBox="0 0 72 72" fill="none" xmlns="http://www.w3.org/2000/svg">
<g clip-path="url(#clip0_16904_17446)">
<path d="M66.6 0.00146484H5.4C3.96783 0.00146484 2.59432 0.570392 1.58162 1.58309C0.568927 2.59578 0 3.9693 0 5.40146V66.6015C0 68.0336 0.568927 69.4071 1.58162 70.4198C2.59432 71.4325 3.96783 72.0015 5.4 72.0015H66.6C68.0322 72.0015 69.4057 71.4325 70.4184 70.4198C71.4311 69.4071 72 68.0336 72 66.6015V5.40146C72 3.9693 71.4311 2.59578 70.4184 1.58309C69.4057 0.570392 68.0322 0.00146484 66.6 0.00146484ZM21.6 61.2015H10.8V28.8015H21.6V61.2015ZM16.2 22.5015C14.9623 22.4661 13.7624 22.0667 12.7503 21.3533C11.7382 20.6399 10.9588 19.6441 10.5095 18.4903C10.0601 17.3364 9.96075 16.0757 10.2238 14.8658C10.4868 13.6558 11.1006 12.5501 11.9884 11.687C12.8762 10.8238 13.9987 10.2414 15.2156 10.0126C16.4325 9.78372 17.6899 9.91855 18.8306 10.4002C19.9714 10.8819 20.9449 11.689 21.6295 12.7208C22.3141 13.7526 22.6795 14.9632 22.68 16.2015C22.6516 17.8947 21.954 19.5079 20.7398 20.6884C19.5256 21.8689 17.8934 22.5207 16.2 22.5015ZM61.2 61.2015H50.4V44.1375C50.4 39.0255 48.24 37.1895 45.432 37.1895C44.6087 37.2443 43.8044 37.4612 43.0652 37.8278C42.326 38.1943 41.6665 38.7034 41.1245 39.3256C40.5826 39.9478 40.169 40.6709 39.9074 41.4534C39.6457 42.2359 39.5413 43.0624 39.6 43.8855C39.5821 44.053 39.5821 44.2219 39.6 44.3895V61.2015H28.8V28.8015H39.24V33.4815C40.2931 31.8795 41.7399 30.5747 43.4419 29.6922C45.1438 28.8097 47.0439 28.3791 48.96 28.4415C54.54 28.4415 61.056 31.5375 61.056 41.6175L61.2 61.2015Z" fill="white"/>
</g>
<defs>
<clipPath id="clip0_16904_17446">
<rect width="72" height="72" fill="white" transform="translate(0 0.00146484)"/>
</clipPath>
</defs>
</svg>

<svg xmlns="http://www.w3.org/2000/svg" width="72" height="72" fill="none" viewBox="0 0 72 72"><g clip-path="url(#a)"><path fill="#fff" d="M66.6.001H5.4a5.4 5.4 0 0 0-5.4 5.4v61.2a5.4 5.4 0 0 0 5.4 5.4h61.2a5.4 5.4 0 0 0 5.4-5.4v-61.2a5.4 5.4 0 0 0-5.4-5.4m-45 61.2H10.8v-32.4h10.8zm-5.4-38.7a6.3 6.3 0 1 1 6.48-6.3 6.41 6.41 0 0 1-6.48 6.3m45 38.7H50.4V44.139c0-5.112-2.16-6.948-4.968-6.948a6.263 6.263 0 0 0-5.832 6.696 2.4 2.4 0 0 0 0 .503v16.813H28.8v-32.4h10.44v4.68a11.2 11.2 0 0 1 9.72-5.04c5.58 0 12.096 3.096 12.096 13.176z"/></g><defs><clipPath id="a"><path fill="#fff" d="M0 .001h72v72H0z"/></clipPath></defs></svg>
